src/icons/icons_set_02/027-restaurant.svg

<svg height="50" viewBox="0 0 50 50" width="50" xmlns="http://www.w3.org/2000/svg"><path d="m29.4089234 26.896137 7.7937643 9.9993623c.2083027.2672514.3452908.5830442.3981089.9177434.4148051 2.6285491-.2734511 4.8180664-2.1181801 6.2617673-1.7978013 1.4069749-3.9994539 1.6550485-6.3496582.8060065-.4246937-.1534261-.784969-.4460557-1.0222045-.8302739l-4.9097595-7.9516757c-2.3735974 3.6050285-3.7127605 5.5766524-4.1645517 6.1188019-1.4402189 1.7282626-3.7105321 2.4192666-5.823818.9094959-2.1209435-1.5152415-2.4356156-4.3436074-1.0900915-6.2273411.4342045-.6078864 2.4067835-3.2240415 5.9720915-7.9216431.1287503-.1696398.2793151-.3129632.4448023-.429026l-1.2429886-2.0131012c-2.0856754.1616681-3.8099932-.354584-5.0533925-1.6529413-1.0867159-1.1347486-3.59733592-4.6705384-7.71818504-10.8342227-.61391381-.9182503-.36720035-2.1603147.55104995-2.7742285.91825029-.6139139 2.16031471-.3672004 2.77422853.5510499 3.94355566 5.8985008 6.43293566 9.4043777 7.28181496 10.2907773.4215676.4402009 1.2778267.6021958 2.784631.2978908.8207021-.1657441 1.6577827.197267 2.097661.9096786l11.0999361 17.9770705c.7884738.1699966 1.3789746.0339264 1.9032012-.3763379.5265366-.4120722.7682721-1.0141863.6902953-2.006864l-12.9101223-16.5636253c-.3455175-.4432973-.4885621-1.0115197-.3941182-1.5655731.1879312-1.1024943.2524678-1.9840087.2047309-2.6246968-.032615-.4377322-.1039366-.6566722-.1263685-.6831219-.7321746-.863317-3.06023-4.1026425-7.1199402-9.89611673-.6338773-.90458466-.4144256-2.15175446.4901591-2.78563172.9045846-.63387726 2.1517544-.41442555 2.7856317.4901591 3.9406153 5.62351795 6.2841309 8.88435525 6.894773 9.60437155.3929182.4632953.6721378 1.0116632.8502607 1.6504465.4746586-1.9459119 1.432012-3.9344953 2.7917883-5.7389794 3.7824262-5.0194491 9.6619121-7.286415 13.390524-4.47670441s3.1700704 9.08629571-.6123559 14.10574481c-2.0111391 2.6688718-4.653183 4.6045288-7.2956719 5.3509999-.9546586.2696794-2.5827805.5300644-2.338966.4726644-.0024436.0005753.04661-.0295429-.102968.1263839-.2316731.2415064-.5093729.4122567-.8061121.5116902zm-8.6702612 5.2150225c-3.1805768 4.1923973-4.9830501 6.5844136-5.3611953 7.1138169-.1145565.1603792-.079404.4763408.1603968.6476589.1298235.0927483.1820679.076847.4256937-.2155041.3413372-.4096045 1.9220072-2.7489963 4.5520889-6.7548129.1191971-.1815464.2628938-.3373353.4238661-.4658689zm-11.89434278-21.6142318c-.61962357-.91440711-.38065428-2.1579847.53375285-2.77760828.91440713-.61962357 2.15798473-.38065428 2.77760833.53375285l6.4372558 9.49975583c.6196236.9144072.3806543 2.1579848-.5337528 2.7776083-.9144071.6196236-2.1579847.3806543-2.7776083-.5337528zm20.55704468 11.86758c-.0179316.0042216 1.4904768-.2370177 2.1682081-.4284686 1.7541792-.4955343 3.6790629-1.9057738 5.1885272-3.9089006 2.6216578-3.4790573 2.9639165-7.3251741 1.3996378-8.50394267-1.5642787-1.17876852-5.1670641.21036515-7.7887219 3.68942247-1.5134402 2.008403-2.3356811 4.2508145-2.3274224 6.0641625.4060944 1.4402201.4910915 2.6447956.1080457 3.6304047.3842062-.2600055.7865174-.4331563 1.2517255-.5426778z"/></svg>

<?xml version="1.0" encoding="UTF-8"?>
<svg width="50px" height="50px" viewBox="0 0 50 50" version="1.1" xmlns="http://www.w3.org/2000/svg" xmlns:xlink="http://www.w3.org/1999/xlink">
    <!-- Generator: Sketch 52.4 (67378) - http://www.bohemiancoding.com/sketch -->
    <title>027-restaurant</title>
    <desc>Created with Sketch.</desc>
    <g id="027-restaurant" stroke="none" stroke-width="1" fill="none" fill-rule="evenodd">
        <path d="M29.4089234,26.896137 L37.2026877,36.8954993 C37.4109904,37.1627507 37.5479785,37.4785435 37.6007966,37.8132427 C38.0156017,40.4417918 37.3273455,42.6313091 35.4826165,44.07501 C33.6848152,45.4819849 31.4831626,45.7300585 29.1329583,44.8810165 C28.7082646,44.7275904 28.3479893,44.4349608 28.1107538,44.0507426 L23.2009943,36.0990669 C20.8273969,39.7040954 19.4882338,41.6757193 19.0364426,42.2178688 C17.5962237,43.9461314 15.3259105,44.6371354 13.2126246,43.1273647 C11.0916811,41.6121232 10.777009,38.7837573 12.1225331,36.9000236 C12.5567376,36.2921372 14.5293166,33.6759821 18.0946246,28.9783805 C18.2233749,28.8087407 18.3739397,28.6654173 18.5394269,28.5493545 L17.2964383,26.5362533 C15.2107629,26.6979214 13.4864451,26.1816693 12.2430458,24.883312 C11.1563299,23.7485634 8.64570988,20.2127736 4.52486076,14.0490893 C3.91094695,13.130839 4.15766041,11.8887746 5.07591071,11.2748608 C5.994161,10.6609469 7.23622542,10.9076604 7.85013924,11.8259107 C11.7936949,17.7244115 14.2830749,21.2302884 15.1319542,22.116688 C15.5535218,22.5568889 16.4097809,22.7188838 17.9165852,22.4145788 C18.7372873,22.2488347 19.5743679,22.6118458 20.0142462,23.3242574 L31.1141823,41.3013279 C31.9026561,41.4713245 32.4931569,41.3352543 33.0173835,40.92499 C33.5439201,40.5129178 33.7856556,39.9108037 33.7076788,38.918126 L20.7975565,22.3545007 C20.452039,21.9112034 20.3089944,21.342981 20.4034383,20.7889276 C20.5913695,19.6864333 20.6559061,18.8049189 20.6081692,18.1642308 C20.5755542,17.7264986 20.5042326,17.5075586 20.4818007,17.4811089 C19.7496261,16.6177919 17.4215707,13.3784664 13.3618605,7.58499217 C12.7279832,6.68040751 12.9474349,5.43323771 13.8520196,4.79936045 C14.7566042,4.16548319 16.003774,4.3849349 16.6376513,5.28951955 C20.5782666,10.9130375 22.9217822,14.1738748 23.5324243,14.8938911 C23.9253425,15.3571864 24.2045621,15.9055543 24.382685,16.5443376 C24.8573436,14.5984257 25.814697,12.6098423 27.1744733,10.8053582 C30.9568995,5.7859091 36.8363854,3.5189432 40.5649973,6.32865379 C44.2936092,9.13836438 43.7350677,15.4149495 39.9526414,20.4343986 C37.9415023,23.1032704 35.2994584,25.0389274 32.6569695,25.7853985 C31.7023109,26.0550779 30.074189,26.3154629 30.3180035,26.2580629 C30.3155599,26.2586382 30.3646135,26.22852 30.2150355,26.3844468 C29.9833624,26.6259532 29.7056626,26.7967035 29.4089234,26.896137 Z M20.7386622,32.1111595 C17.5580854,36.3035568 15.7556121,38.6955731 15.3774669,39.2249764 C15.2629104,39.3853556 15.2980629,39.7013172 15.5378637,39.8726353 C15.6676872,39.9653836 15.7199316,39.9494823 15.9635574,39.6571312 C16.3048946,39.2475267 17.8855646,36.9081349 20.5156463,32.9023183 C20.6348434,32.7207719 20.7785401,32.564983 20.9395124,32.4364494 L20.7386622,32.1111595 Z M8.84431942,10.4969277 C8.22469585,9.58252059 8.46366514,8.338943 9.37807227,7.71931942 C10.2924794,7.09969585 11.536057,7.33866514 12.1556806,8.25307227 L18.5929364,17.7528281 C19.21256,18.6672353 18.9735907,19.9108129 18.0591836,20.5304364 C17.1447765,21.15006 15.9011989,20.9110907 15.2815753,19.9966836 L8.84431942,10.4969277 Z M29.4013641,22.3645077 C29.3834325,22.3687293 30.8918409,22.12749 31.5695722,21.9360391 C33.3237514,21.4405048 35.2486351,20.0302653 36.7580994,18.0271385 C39.3797572,14.5480812 39.7220159,10.7019644 38.1577372,9.52319583 C36.5934585,8.34442731 32.9906731,9.73356098 30.3690153,13.2126183 C28.8555751,15.2210213 28.0333342,17.4634328 28.0415929,19.2767808 C28.4476873,20.7170009 28.5326844,21.9215764 28.1496386,22.9071855 C28.5338448,22.64718 28.936156,22.4740292 29.4013641,22.3645077 Z" id="Combined-Shape" fill="#000000" fill-rule="nonzero"></path>
    </g>
</svg>
